X: 1
T: Maria's
M: 6/8
L: 1/8
R: jig
K: Cmaj
G,|:CEG FED|C2E G,2G,|CEG FED|E3-E2G|AFA GEG|FDF ECE|F2A GFE|1D3-D2G,:|2D3 F2G|
|:AcA G2c|cFd cBA|e3 edc|efe ecG|Fdc Edc|GdB cGE|F2A GFE|1D3 F2G:|2D3-D2|]
